img/logo.svg

<svg width="173" height="40" viewBox="0 0 173 40" fill="none" xmlns="http://www.w3.org/2000/svg">
<path d="M2.78965 32.7802L0.289746 29.1348H2.09561L3.79365 31.7425L5.50518 29.1348H7.29756L4.79092 32.7802L7.42559 36.5873H5.6332L3.79365 33.7977L1.96084 36.5873H0.168457L2.78965 32.7802Z" fill="white"/>
<path d="M7.60078 29.1348H9.32578L10.8419 33.3597C11.071 33.9616 11.2237 34.5276 11.3001 35.0577H11.354C11.3944 34.8106 11.4686 34.5119 11.5764 34.1615C11.6842 33.8066 12.2547 32.1311 13.2879 29.1348H14.9994L11.8122 37.5778C11.2327 39.1276 10.2669 39.9025 8.91475 39.9025C8.56436 39.9025 8.22295 39.8644 7.89053 39.788V38.5347C8.12861 38.5886 8.40039 38.6155 8.70586 38.6155C9.46953 38.6155 10.0063 38.173 10.3163 37.2881L10.5926 36.5873L7.60078 29.1348Z" fill="white"/>
<path d="M23.2808 39.222H21.8051V36.5873H16.6975V39.222H15.2353V35.3609H15.8417C16.3718 34.6018 16.7918 33.6854 17.1018 32.6117C17.4162 31.5336 17.6026 30.3746 17.661 29.1348H22.1892V35.3609H23.2808V39.222ZM20.6326 35.3609V30.3477H19.0289C18.9436 31.273 18.7639 32.185 18.4898 33.0834C18.2203 33.9818 17.8901 34.741 17.4993 35.3609H20.6326Z" fill="white"/>
<path d="M31.2724 32.8476C31.2724 34.0649 30.9602 35.015 30.3357 35.6979C29.7113 36.3807 28.8421 36.7221 27.728 36.7221C27.0317 36.7221 26.4163 36.5648 25.8817 36.2504C25.3472 35.9359 24.9361 35.4845 24.6486 34.896C24.3611 34.3075 24.2174 33.6247 24.2174 32.8476C24.2174 31.6392 24.5273 30.6958 25.1473 30.0175C25.7672 29.3392 26.6409 29 27.7685 29C28.8466 29 29.7001 29.3481 30.329 30.0444C30.9579 30.7362 31.2724 31.6706 31.2724 32.8476ZM25.848 32.8476C25.848 34.5681 26.4837 35.4283 27.755 35.4283C29.0128 35.4283 29.6417 34.5681 29.6417 32.8476C29.6417 31.145 29.0083 30.2938 27.7415 30.2938C27.0767 30.2938 26.5938 30.5139 26.2928 30.9541C25.9963 31.3943 25.848 32.0255 25.848 32.8476Z" fill="white"/>
<path d="M36.7708 32.7532V29.1348H38.2465V32.7532L41.117 29.1348H42.7881L39.8569 32.7397L43.0509 36.5873H41.3057L38.2465 32.8071V36.5873H36.7708V32.8071L33.7184 36.5873H31.9799L35.1671 32.7397L32.2427 29.1348H33.9138L36.7708 32.7532Z" fill="white"/>
<path d="M47.4577 36.7221C46.2987 36.7221 45.3913 36.3852 44.7355 35.7113C44.0841 35.033 43.7584 34.1009 43.7584 32.9149C43.7584 31.6976 44.0616 30.7407 44.6681 30.0444C45.2745 29.3481 46.1078 29 47.168 29C48.1518 29 48.9289 29.2987 49.4994 29.8962C50.0699 30.4937 50.3552 31.3157 50.3552 32.3624V33.2182H45.3891C45.4115 33.9414 45.6069 34.4984 45.9753 34.8893C46.3437 35.2756 46.8625 35.4687 47.5318 35.4687C47.9721 35.4687 48.3809 35.4283 48.7582 35.3475C49.14 35.2621 49.5488 35.1229 49.9846 34.9297V36.2167C49.5982 36.4009 49.2074 36.5312 48.8121 36.6075C48.4168 36.6839 47.9653 36.7221 47.4577 36.7221ZM47.168 30.1994C46.6648 30.1994 46.2605 30.3589 45.9551 30.6778C45.6541 30.9968 45.4744 31.4617 45.416 32.0727H48.7986C48.7896 31.4572 48.6414 30.9923 48.3539 30.6778C48.0664 30.3589 47.6711 30.1994 47.168 30.1994Z" fill="white"/>
<path d="M55.1596 36.7221C54.032 36.7221 53.174 36.3941 52.5855 35.7383C52.0016 35.0779 51.7096 34.1323 51.7096 32.9015C51.7096 31.6481 52.015 30.6846 52.626 30.0107C53.2414 29.3369 54.1286 29 55.2876 29C56.0737 29 56.7812 29.146 57.4102 29.438L56.9317 30.7115C56.2624 30.451 55.7099 30.3207 55.2741 30.3207C53.9849 30.3207 53.3402 31.1765 53.3402 32.888C53.3402 33.7235 53.4997 34.3524 53.8187 34.7747C54.1421 35.1925 54.6138 35.4014 55.2337 35.4014C55.939 35.4014 56.6061 35.2262 57.235 34.8758V36.2571C56.952 36.4233 56.6487 36.5424 56.3253 36.6143C56.0063 36.6861 55.6178 36.7221 55.1596 36.7221Z" fill="white"/>
<path d="M64.5864 29.1348V30.3746H62.1606V36.5873H60.5704V30.3746H58.1446V29.1348H64.5864Z" fill="white"/>
<path d="M72.4904 31.0417C72.4904 31.9222 71.9761 32.4545 70.9474 32.6387V32.6926C71.5224 32.76 71.9626 32.9419 72.2681 33.2384C72.5735 33.5349 72.7263 33.9189 72.7263 34.3906C72.7263 35.0959 72.4567 35.6395 71.9177 36.0213C71.3831 36.3986 70.6037 36.5873 69.5795 36.5873H66.0217V29.1348H69.566C71.5156 29.1348 72.4904 29.7704 72.4904 31.0417ZM71.1023 34.2963C71.1023 33.9369 70.9631 33.6831 70.6846 33.5349C70.4061 33.3821 69.9883 33.3058 69.4313 33.3058H67.6052V35.4148H69.4717C70.5588 35.4148 71.1023 35.042 71.1023 34.2963ZM70.9069 31.1765C70.9069 30.88 70.7901 30.6666 70.5565 30.5363C70.3274 30.4016 69.9838 30.3342 69.5256 30.3342H67.6052V32.1266H69.2897C69.8198 32.1266 70.2219 32.0592 70.4959 31.9244C70.7699 31.7852 70.9069 31.5358 70.9069 31.1765Z" fill="white"/>
<path d="M77.6183 36.7221C76.4593 36.7221 75.5519 36.3852 74.896 35.7113C74.2446 35.033 73.9189 34.1009 73.9189 32.9149C73.9189 31.6976 74.2222 30.7407 74.8286 30.0444C75.4351 29.3481 76.2684 29 77.3285 29C78.3123 29 79.0895 29.2987 79.66 29.8962C80.2305 30.4937 80.5157 31.3157 80.5157 32.3624V33.2182H75.5496C75.5721 33.9414 75.7675 34.4984 76.1358 34.8893C76.5042 35.2756 77.023 35.4687 77.6924 35.4687C78.1326 35.4687 78.5414 35.4283 78.9188 35.3475C79.3006 35.2621 79.7094 35.1229 80.1451 34.9297V36.2167C79.7588 36.4009 79.368 36.5312 78.9727 36.6075C78.5773 36.6839 78.1259 36.7221 77.6183 36.7221ZM77.3285 30.1994C76.8254 30.1994 76.4211 30.3589 76.1156 30.6778C75.8147 30.9968 75.635 31.4617 75.5766 32.0727H78.9592C78.9502 31.4572 78.802 30.9923 78.5145 30.6778C78.227 30.3589 77.8316 30.1994 77.3285 30.1994Z" fill="white"/>
<path d="M83.8983 29.1348V32.1266H87.409V29.1348H88.9925V36.5873H87.409V33.3731H83.8983V36.5873H82.3148V29.1348H83.8983Z" fill="white"/>
<path d="M92.8468 29.1348V32.1266H96.3574V29.1348H97.9409V36.5873H96.3574V33.3731H92.8468V36.5873H91.2633V29.1348H92.8468Z" fill="white"/>
<path d="M104.875 36.5873L104.558 35.5496H104.504C104.145 36.0033 103.783 36.3133 103.419 36.4795C103.055 36.6412 102.588 36.7221 102.018 36.7221C101.285 36.7221 100.713 36.5244 100.299 36.1291C99.8905 35.7338 99.6861 35.1745 99.6861 34.4513C99.6861 33.6831 99.9714 33.1036 100.542 32.7128C101.112 32.322 101.982 32.1086 103.15 32.0727L104.437 32.0322V31.6347C104.437 31.1585 104.324 30.8036 104.1 30.57C103.88 30.3319 103.536 30.2129 103.069 30.2129C102.687 30.2129 102.321 30.269 101.97 30.3813C101.62 30.4937 101.283 30.6262 100.96 30.7789L100.448 29.6469C100.852 29.4357 101.294 29.2763 101.775 29.1685C102.256 29.0562 102.709 29 103.136 29C104.084 29 104.798 29.2066 105.279 29.6199C105.764 30.0332 106.007 30.6823 106.007 31.5673V36.5873H104.875ZM102.516 35.5092C103.091 35.5092 103.552 35.3497 103.898 35.0308C104.248 34.7073 104.423 34.2559 104.423 33.6764V33.0295L103.466 33.0699C102.721 33.0969 102.177 33.2227 101.836 33.4473C101.499 33.6674 101.33 34.0065 101.33 34.4647C101.33 34.7972 101.429 35.0555 101.627 35.2396C101.824 35.4193 102.121 35.5092 102.516 35.5092Z" fill="white"/>
<path d="M108.978 36.5873H107.206L109.281 33.5349C108.778 33.3911 108.383 33.1351 108.096 32.7667C107.808 32.3938 107.664 31.9334 107.664 31.3854C107.664 30.6801 107.916 30.1298 108.419 29.7345C108.922 29.3347 109.609 29.1348 110.481 29.1348H113.877V36.5873H112.287V33.7168H110.784L108.978 36.5873ZM109.207 31.3988C109.207 31.7807 109.351 32.0682 109.639 32.2613C109.931 32.45 110.321 32.5443 110.811 32.5443H112.287V30.3342H110.562C110.13 30.3342 109.796 30.4263 109.558 30.6104C109.324 30.7946 109.207 31.0574 109.207 31.3988Z" fill="white"/>
<path d="M124.544 29.1348V30.3746H121.309V36.5873H119.726V29.1348H124.544Z" fill="white"/>
<path d="M130.642 36.5873L130.325 35.5496H130.271C129.912 36.0033 129.55 36.3133 129.186 36.4795C128.822 36.6412 128.355 36.7221 127.785 36.7221C127.053 36.7221 126.48 36.5244 126.067 36.1291C125.658 35.7338 125.453 35.1745 125.453 34.4513C125.453 33.6831 125.739 33.1036 126.309 32.7128C126.88 32.322 127.749 32.1086 128.917 32.0727L130.204 32.0322V31.6347C130.204 31.1585 130.092 30.8036 129.867 30.57C129.647 30.3319 129.303 30.2129 128.836 30.2129C128.454 30.2129 128.088 30.269 127.738 30.3813C127.387 30.4937 127.05 30.6262 126.727 30.7789L126.215 29.6469C126.619 29.4357 127.062 29.2763 127.542 29.1685C128.023 29.0562 128.477 29 128.903 29C129.851 29 130.565 29.2066 131.046 29.6199C131.531 30.0332 131.774 30.6823 131.774 31.5673V36.5873H130.642ZM128.283 35.5092C128.858 35.5092 129.319 35.3497 129.665 35.0308C130.015 34.7073 130.19 34.2559 130.19 33.6764V33.0295L129.234 33.0699C128.488 33.0969 127.944 33.2227 127.603 33.4473C127.266 33.6674 127.097 34.0065 127.097 34.4647C127.097 34.7972 127.196 35.0555 127.394 35.2396C127.592 35.4193 127.888 35.5092 128.283 35.5092Z" fill="white"/>
<path d="M140.109 36.5873H138.512V30.3746H136.457C136.331 31.9738 136.16 33.2227 135.945 34.1211C135.734 35.0195 135.455 35.6754 135.109 36.0887C134.768 36.502 134.323 36.7086 133.775 36.7086C133.429 36.7086 133.139 36.6592 132.906 36.5604V35.3205C133.072 35.3834 133.238 35.4148 133.404 35.4148C133.863 35.4148 134.222 34.9005 134.483 33.8718C134.748 32.8386 134.954 31.2596 135.103 29.1348H140.109V36.5873Z" fill="white"/>
<path d="M145.634 36.7221C144.475 36.7221 143.568 36.3852 142.912 35.7113C142.261 35.033 141.935 34.1009 141.935 32.9149C141.935 31.6976 142.238 30.7407 142.845 30.0444C143.451 29.3481 144.285 29 145.345 29C146.329 29 147.106 29.2987 147.676 29.8962C148.247 30.4937 148.532 31.3157 148.532 32.3624V33.2182H143.566C143.588 33.9414 143.784 34.4984 144.152 34.8893C144.52 35.2756 145.039 35.4687 145.709 35.4687C146.149 35.4687 146.558 35.4283 146.935 35.3475C147.317 35.2621 147.726 35.1229 148.161 34.9297V36.2167C147.775 36.4009 147.384 36.5312 146.989 36.6075C146.594 36.6839 146.142 36.7221 145.634 36.7221ZM145.345 30.1994C144.842 30.1994 144.437 30.3589 144.132 30.6778C143.831 30.9968 143.651 31.4617 143.593 32.0727H146.975C146.966 31.4572 146.818 30.9923 146.531 30.6778C146.243 30.3589 145.848 30.1994 145.345 30.1994Z" fill="white"/>
<path d="M154.111 36.7221C153.168 36.7221 152.436 36.3829 151.915 35.7046H151.82C151.883 36.3335 151.915 36.7153 151.915 36.8501V39.9025H150.331V29.1348H151.611C151.647 29.274 151.721 29.6064 151.834 30.132H151.915C152.409 29.3773 153.15 29 154.138 29C155.068 29 155.791 29.3369 156.308 30.0107C156.829 30.6846 157.09 31.6302 157.09 32.8476C157.09 34.0649 156.825 35.015 156.294 35.6979C155.769 36.3807 155.041 36.7221 154.111 36.7221ZM153.727 30.2938C153.098 30.2938 152.638 30.4779 152.346 30.8463C152.058 31.2146 151.915 31.8031 151.915 32.6117V32.8476C151.915 33.755 152.058 34.4131 152.346 34.8219C152.633 35.2262 153.103 35.4283 153.754 35.4283C154.302 35.4283 154.724 35.2037 155.021 34.7545C155.317 34.3053 155.466 33.6651 155.466 32.8341C155.466 31.9985 155.317 31.3674 155.021 30.9406C154.729 30.5094 154.298 30.2938 153.727 30.2938Z" fill="white"/>
<path d="M162.184 36.7221C161.025 36.7221 160.117 36.3852 159.461 35.7113C158.81 35.033 158.484 34.1009 158.484 32.9149C158.484 31.6976 158.788 30.7407 159.394 30.0444C160 29.3481 160.834 29 161.894 29C162.878 29 163.655 29.2987 164.225 29.8962C164.796 30.4937 165.081 31.3157 165.081 32.3624V33.2182H160.115C160.137 33.9414 160.333 34.4984 160.701 34.8893C161.07 35.2756 161.588 35.4687 162.258 35.4687C162.698 35.4687 163.107 35.4283 163.484 35.3475C163.866 35.2621 164.275 35.1229 164.711 34.9297V36.2167C164.324 36.4009 163.933 36.5312 163.538 36.6075C163.143 36.6839 162.691 36.7221 162.184 36.7221ZM161.894 30.1994C161.391 30.1994 160.987 30.3589 160.681 30.6778C160.38 30.9968 160.2 31.4617 160.142 32.0727H163.525C163.516 31.4572 163.367 30.9923 163.08 30.6778C162.792 30.3589 162.397 30.1994 161.894 30.1994Z" fill="white"/>
<path d="M167.642 36.5873H165.87L167.945 33.5349C167.442 33.3911 167.046 33.1351 166.759 32.7667C166.471 32.3938 166.328 31.9334 166.328 31.3854C166.328 30.6801 166.579 30.1298 167.082 29.7345C167.586 29.3347 168.273 29.1348 169.144 29.1348H172.54V36.5873H170.95V33.7168H169.448L167.642 36.5873ZM167.871 31.3988C167.871 31.7807 168.015 32.0682 168.302 32.2613C168.594 32.45 168.985 32.5443 169.475 32.5443H170.95V30.3342H169.225C168.794 30.3342 168.459 30.4263 168.221 30.6104C167.988 30.7946 167.871 31.0574 167.871 31.3988Z" fill="white"/>
<path d="M0 21.5989H11.6611C16.2601 21.5989 18.6142 19.5161 18.6142 15.5512V15.4895C18.6142 12.5428 17.1175 10.7532 14.2334 10.244V9.96634C16.6498 9.50351 17.9126 7.92987 17.9126 5.36886V5.29173C17.9126 1.80505 15.7145 0 11.4117 0H0V21.5989ZM4.59897 8.84011V3.0547H10.0398C12.2379 3.0547 13.3292 4.01122 13.3292 5.89341V5.95512C13.3292 7.86816 12.2379 8.84011 10.0398 8.84011H4.59897ZM4.59897 18.5288V11.648H10.1801C12.5965 11.648 13.7969 12.7896 13.7969 15.0266V15.0884C13.7969 17.3717 12.5965 18.5288 10.1801 18.5288H4.59897Z" fill="white"/>
<path d="M22.9462 0V21.5989H27.4828V0H22.9462Z" fill="white"/>
<path d="M36.9751 22C40.6387 22 43.3046 20.3801 44.2867 17.6339L44.5985 17.7111C44.0061 20.7041 44.6297 22 48.2153 22C48.6674 22 49.1195 21.9537 49.4937 21.892L50.0237 19.223L49.2443 19.2076C48.3868 19.1921 48.1374 18.9916 48.1374 17.8962V10.4755C48.1374 6.80365 45.6742 5.04488 40.4205 5.04488C34.8393 5.04488 32.0176 7.2202 32.2514 10.9846L36.7257 11.3548C36.5386 8.87097 37.817 7.74474 40.3269 7.74474C42.5718 7.74474 43.6319 8.56241 43.6319 10.4292V11.3394L39.2045 12.1417C34.777 12.9593 31.8461 14.3478 31.8461 17.7419V17.7882C31.8461 20.4727 33.6857 22 36.9751 22ZM38.7835 19.007C37.2557 19.007 36.4295 18.467 36.4295 17.3562V17.3254C36.4295 15.7363 37.8793 15.0884 40.7478 14.533L43.6319 13.9776V14.7335C43.6319 17.2174 41.3714 19.007 38.7835 19.007Z" fill="white"/>
<path d="M53.8414 21.5989H58.378V14.0701C58.378 10.4292 60.1084 8.17672 62.9769 8.17672C65.1127 8.17672 66.1728 9.27209 66.1728 11.3703V21.5989H70.7095V10.2903C70.7095 6.89621 68.6984 5.10659 64.9568 5.10659C61.5583 5.10659 59.2354 6.58766 57.8635 9.67321L57.5517 9.53436C58.1753 7.69846 58.3936 6.60309 58.3936 5.39972H53.8414V21.5989Z" fill="white"/>
<path d="M84.2083 21.9846C89.5556 21.9846 92.5488 19.8555 93.0009 15.7363L88.4175 15.2272C88.2305 17.8191 86.7962 19.1304 84.2239 19.1304C81.3398 19.1304 79.8432 17.3408 79.8432 13.8079V13.0519C79.8432 9.59607 81.3554 7.85273 84.1771 7.85273C86.7806 7.85273 88.1369 9.28752 88.3396 12.1571L92.8606 11.648C92.502 7.28191 89.618 5.01403 84.1927 5.01403C78.2998 5.01403 75.1974 7.86816 75.1974 13.3296V13.5302C75.1974 19.0842 78.2686 21.9846 84.2083 21.9846Z" fill="white"/>
<path d="M97.5201 21.5989H102.057V14.0701C102.057 10.4292 103.772 8.19215 106.656 8.19215C108.791 8.19215 109.852 9.27209 109.852 11.3703V21.5989H114.388V10.2903C114.388 6.89621 112.362 5.10659 108.636 5.10659C105.206 5.10659 102.899 6.58766 101.542 9.65778L101.215 9.53436C101.823 7.80645 102.041 6.52595 102.057 4.9986V0H97.5201V21.5989Z" fill="white"/>
<path d="M123.803 22C127.466 22 130.132 20.3801 131.114 17.6339L131.426 17.7111C130.833 20.7041 131.457 22 135.043 22C135.495 22 135.947 21.9537 136.321 21.892L136.851 19.223L136.072 19.2076C135.214 19.1921 134.965 18.9916 134.965 17.8962V10.4755C134.965 6.80365 132.502 5.04488 127.248 5.04488C121.667 5.04488 118.845 7.2202 119.079 10.9846L123.553 11.3548C123.366 8.87097 124.644 7.74474 127.154 7.74474C129.399 7.74474 130.459 8.56241 130.459 10.4292V11.3394L126.032 12.1417C121.604 12.9593 118.673 14.3478 118.673 17.7419V17.7882C118.673 20.4727 120.513 22 123.803 22ZM125.611 19.007C124.083 19.007 123.257 18.467 123.257 17.3562V17.3254C123.257 15.7363 124.707 15.0884 127.575 14.533L130.459 13.9776V14.7335C130.459 17.2174 128.199 19.007 125.611 19.007Z" fill="white"/>
<path d="M140.669 21.5989H145.205V14.8261C145.205 10.5989 146.53 9.04067 149.991 8.79383L152.221 8.62412L151.691 4.8906C148.027 5.1683 146.328 6.30996 144.644 9.67321L144.348 9.53436C145.081 7.37447 145.252 6.51052 145.221 5.39972H140.669V21.5989Z" fill="white"/>
<path d="M162.243 21.892C165.61 21.892 167.809 20.3492 168.915 17.5568L169.243 17.6648C168.713 19.3619 168.432 20.7041 168.417 21.5989H173V0H168.463V4.39691C168.463 6.09397 168.697 7.46704 169.258 9.3338L168.947 9.45722C167.84 6.68022 165.626 5.07574 162.243 5.07574C157.566 5.07574 155.103 7.89902 155.103 13.2987V13.6844C155.103 19.0687 157.566 21.892 162.243 21.892ZM163.958 19.115C161.152 19.115 159.686 17.3408 159.686 13.8387V13.129C159.686 9.6115 161.152 7.82188 163.958 7.82188C166.889 7.82188 168.463 9.70407 168.463 13.2062V13.7616C168.463 17.2482 166.889 19.115 163.958 19.115Z" fill="white"/>
</svg>

<svg xmlns="http://www.w3.org/2000/svg" width="173" height="40" fill="none"><path fill="#fff" d="m2.79 32.78-2.5-3.645h1.806l1.698 2.607 1.711-2.607h1.793L4.79 32.78l2.635 3.807H5.633l-1.84-2.79-1.832 2.79H.168zM7.6 29.135h1.726l1.516 4.225q.344.903.458 1.698h.054q.06-.37.222-.897.162-.532 1.712-5.026h1.711l-3.187 8.443q-.87 2.325-2.897 2.325-.525 0-1.024-.115v-1.253q.357.08.815.08 1.146 0 1.61-1.327l.277-.7zM23.28 39.222h-1.475v-2.635h-5.107v2.635h-1.463v-3.861h.607q.795-1.14 1.26-2.75.47-1.616.559-3.476h4.528v6.226h1.092zm-2.647-3.861v-5.013h-1.604a13.6 13.6 0 0 1-.54 2.735q-.403 1.348-.99 2.278zM31.272 32.848q0 1.826-.936 2.85-.937 1.024-2.608 1.024-1.044 0-1.846-.472a3.1 3.1 0 0 1-1.233-1.354q-.432-.883-.432-2.048 0-1.813.93-2.83T27.77 29q1.617 0 2.56 1.044.943 1.038.943 2.804m-5.424 0q0 2.58 1.907 2.58 1.887 0 1.887-2.58 0-2.554-1.9-2.554-.997 0-1.45.66-.444.66-.444 1.894M36.77 32.753v-3.618h1.476v3.618l2.871-3.618h1.671l-2.931 3.605 3.194 3.847h-1.745l-3.06-3.78v3.78h-1.475v-3.78l-3.053 3.78H31.98l3.187-3.847-2.924-3.605h1.67zM47.458 36.722q-1.74 0-2.722-1.01-.978-1.018-.978-2.797 0-1.826.91-2.87t2.5-1.045q1.475 0 2.331.896.855.897.856 2.466v.856H45.39q.034 1.084.586 1.671.553.58 1.557.58.66 0 1.226-.122.572-.127 1.227-.417v1.287a4.9 4.9 0 0 1-1.173.39 7 7 0 0 1-1.354.115m-.29-6.523q-.754 0-1.213.479-.45.478-.539 1.395h3.383q-.015-.923-.445-1.395-.432-.48-1.186-.479M55.16 36.722q-1.692 0-2.574-.984-.876-.99-.876-2.837 0-1.88.916-2.89Q53.549 29 55.288 29q1.179 0 2.122.438l-.478 1.274q-1.005-.391-1.658-.391-1.935 0-1.934 2.567 0 1.253.479 1.887.485.627 1.415.626a4.05 4.05 0 0 0 2.001-.525v1.381a3.1 3.1 0 0 1-.91.357 5.4 5.4 0 0 1-1.165.108M64.586 29.135v1.24h-2.425v6.212h-1.59v-6.212h-2.426v-1.24zM72.49 31.042q0 1.32-1.543 1.597v.054q.863.1 1.321.545.458.444.458 1.153 0 1.058-.808 1.63-.802.567-2.339.566h-3.557v-7.452h3.544q2.924 0 2.924 1.907m-1.388 3.254q0-.54-.417-.761-.418-.23-1.254-.23h-1.826v2.11h1.867q1.63 0 1.63-1.119m-.195-3.12q0-.445-.35-.64-.344-.201-1.031-.202h-1.92v1.793h1.684q.795 0 1.206-.203.41-.209.41-.747M77.618 36.722q-1.738 0-2.722-1.01-.977-1.018-.977-2.797 0-1.826.91-2.87t2.5-1.045q1.474 0 2.331.896.855.897.856 2.466v.856H75.55q.034 1.084.586 1.671.552.58 1.556.58.66 0 1.227-.122.573-.127 1.226-.417v1.287a4.9 4.9 0 0 1-1.172.39 7 7 0 0 1-1.355.115m-.29-6.523q-.754 0-1.212.479-.451.478-.54 1.395h3.383q-.013-.923-.445-1.395-.43-.48-1.185-.479M83.898 29.135v2.992h3.511v-2.992h1.584v7.452h-1.584v-3.214h-3.51v3.214h-1.584v-7.452zM92.847 29.135v2.992h3.51v-2.992h1.584v7.452h-1.584v-3.214h-3.51v3.214h-1.584v-7.452zM104.875 36.587l-.317-1.037h-.054q-.539.68-1.085.93-.546.242-1.401.242-1.099 0-1.719-.593-.613-.592-.613-1.678 0-1.152.856-1.738t2.608-.64l1.287-.04v-.398q0-.715-.337-1.065-.33-.357-1.031-.357-.573 0-1.099.168-.525.169-1.01.398l-.512-1.132q.606-.316 1.327-.478a6 6 0 0 1 1.361-.169q1.422 0 2.143.62.728.62.728 1.947v5.02zm-2.359-1.078q.863 0 1.382-.478.525-.486.525-1.355v-.647l-.957.04q-1.118.042-1.63.378-.506.33-.506 1.018 0 .498.297.775.296.27.889.27M108.978 36.587h-1.772l2.075-3.052q-.755-.216-1.185-.768-.432-.56-.432-1.382 0-1.058.755-1.65.754-.6 2.062-.6h3.396v7.452h-1.59v-2.87h-1.503zm.229-5.188q0 .574.432.862.438.283 1.172.283h1.476v-2.21h-1.725q-.648 0-1.004.276-.351.277-.351.789M124.544 29.135v1.24h-3.235v6.212h-1.583v-7.452zM130.642 36.587l-.317-1.037h-.054q-.539.68-1.085.93-.546.242-1.401.242-1.098 0-1.718-.593-.614-.592-.614-1.678 0-1.152.856-1.738t2.608-.64l1.287-.04v-.398q0-.715-.337-1.065-.33-.357-1.031-.357-.573 0-1.098.168a8 8 0 0 0-1.011.398l-.512-1.132q.606-.316 1.327-.478a6 6 0 0 1 1.361-.169q1.422 0 2.143.62.728.62.728 1.947v5.02zm-2.359-1.078q.863 0 1.382-.478.525-.486.525-1.355v-.647l-.956.04q-1.12.042-1.631.378-.506.33-.506 1.018 0 .498.297.775.297.27.889.27M140.109 36.587h-1.597v-6.212h-2.055q-.19 2.399-.512 3.746-.317 1.347-.836 1.968-.512.62-1.334.62-.52 0-.869-.149v-1.24q.249.095.498.095.688 0 1.079-1.543.397-1.55.62-4.737h5.006zM145.634 36.722q-1.738 0-2.722-1.01-.977-1.018-.977-2.797 0-1.826.91-2.87t2.5-1.045q1.476 0 2.331.896.856.897.856 2.466v.856h-4.966q.033 1.084.586 1.671.552.58 1.557.58.66 0 1.226-.122a6.6 6.6 0 0 0 1.226-.417v1.287a4.9 4.9 0 0 1-1.172.39 7 7 0 0 1-1.355.115m-.289-6.523q-.755 0-1.213.479-.452.478-.539 1.395h3.382q-.013-.923-.444-1.395-.432-.48-1.186-.479M154.111 36.722q-1.415 0-2.196-1.017h-.095q.095.943.095 1.145v3.053h-1.584V29.135h1.28q.054.208.223.997h.081Q152.656 29 154.138 29q1.395 0 2.17 1.01.782 1.012.782 2.838t-.796 2.85q-.788 1.024-2.183 1.024m-.384-6.428q-.943 0-1.381.552-.431.553-.431 1.766v.236q0 1.36.431 1.974.431.606 1.408.606.822 0 1.267-.673.444-.675.445-1.92 0-1.255-.445-1.894-.438-.647-1.294-.647M162.184 36.722q-1.739 0-2.723-1.01-.977-1.018-.977-2.797 0-1.826.91-2.87t2.5-1.045q1.476 0 2.331.896.856.897.856 2.466v.856h-4.966q.034 1.084.586 1.671.553.58 1.557.58.66 0 1.226-.122a6.6 6.6 0 0 0 1.227-.417v1.287a5 5 0 0 1-1.173.39 7 7 0 0 1-1.354.115m-.29-6.523q-.754 0-1.213.479-.452.478-.539 1.395h3.383q-.014-.923-.445-1.395-.432-.48-1.186-.479M167.642 36.587h-1.772l2.075-3.052q-.755-.216-1.186-.768-.432-.56-.431-1.382 0-1.058.754-1.65.756-.6 2.062-.6h3.396v7.452h-1.59v-2.87h-1.502zm.229-5.188q0 .574.431.862.438.283 1.173.283h1.475v-2.21h-1.725q-.647 0-1.004.276-.35.277-.35.789M0 21.599h11.661c4.6 0 6.953-2.083 6.953-6.048v-.062c0-2.946-1.497-4.736-4.38-5.245v-.278c2.416-.462 3.679-2.036 3.679-4.597v-.077C17.913 1.805 15.714 0 11.412 0H0zM4.599 8.84V3.055h5.44c2.199 0 3.29.956 3.29 2.838v.062c0 1.913-1.091 2.885-3.29 2.885zm0 9.689v-6.881h5.581c2.417 0 3.617 1.142 3.617 3.379v.061c0 2.284-1.2 3.44-3.617 3.44zM22.946 0v21.599h4.537V0zM36.975 22c3.664 0 6.33-1.62 7.312-4.366l.312.077c-.593 2.993.03 4.289 3.616 4.289.452 0 .904-.046 1.279-.108l.53-2.669-.78-.015c-.857-.016-1.107-.216-1.107-1.312v-7.42c0-3.672-2.463-5.431-7.717-5.431-5.58 0-8.402 2.175-8.169 5.94l4.475.37c-.187-2.484 1.091-3.61 3.6-3.61 2.246 0 3.306.817 3.306 2.684v.91l-4.427.803c-4.428.817-7.359 2.206-7.359 5.6v.046c0 2.685 1.84 4.212 5.13 4.212m1.808-2.993c-1.527 0-2.354-.54-2.354-1.65v-.032c0-1.589 1.45-2.237 4.319-2.792l2.884-.555v.755c0 2.484-2.26 4.274-4.849 4.274M53.841 21.599h4.537V14.07c0-3.64 1.73-5.893 4.599-5.893 2.136 0 3.196 1.095 3.196 3.193V21.6h4.537V10.29c0-3.394-2.012-5.183-5.753-5.183-3.399 0-5.722 1.48-7.093 4.566l-.312-.139c.623-1.836.842-2.93.842-4.134H53.84zM84.208 21.985c5.348 0 8.34-2.13 8.793-6.249l-4.584-.509c-.186 2.592-1.62 3.903-4.193 3.903-2.884 0-4.38-1.79-4.38-5.322v-.756c0-3.456 1.511-5.2 4.333-5.2 2.604 0 3.96 1.436 4.163 4.305l4.52-.509c-.358-4.366-3.242-6.634-8.667-6.634-5.893 0-8.996 2.854-8.996 8.316v.2c0 5.554 3.072 8.455 9.011 8.455M97.52 21.599h4.537V14.07c0-3.64 1.715-5.878 4.599-5.878 2.135 0 3.196 1.08 3.196 3.178V21.6h4.536V10.29c0-3.394-2.026-5.183-5.752-5.183-3.43 0-5.737 1.48-7.094 4.55l-.327-.123c.608-1.728.826-3.008.842-4.535V0H97.52zM123.803 22c3.663 0 6.329-1.62 7.311-4.366l.312.077c-.593 2.993.031 4.289 3.617 4.289.452 0 .904-.046 1.278-.108l.53-2.669-.779-.015c-.858-.016-1.107-.216-1.107-1.312v-7.42c0-3.672-2.463-5.431-7.717-5.431-5.581 0-8.403 2.175-8.169 5.94l4.474.37c-.187-2.484 1.091-3.61 3.601-3.61 2.245 0 3.305.817 3.305 2.684v.91l-4.427.803c-4.428.817-7.359 2.206-7.359 5.6v.046c0 2.685 1.84 4.212 5.13 4.212m1.808-2.993c-1.528 0-2.354-.54-2.354-1.65v-.032c0-1.589 1.45-2.237 4.318-2.792l2.884-.555v.755c0 2.484-2.26 4.274-4.848 4.274M140.669 21.599h4.536v-6.773c0-4.227 1.325-5.785 4.786-6.032l2.23-.17-.53-3.733c-3.664.277-5.363 1.419-7.047 4.782l-.296-.139c.733-2.16.904-3.023.873-4.134h-4.552zM162.243 21.892c3.367 0 5.566-1.543 6.672-4.335l.328.108c-.53 1.697-.811 3.04-.826 3.934H173V0h-4.537v4.397c0 1.697.234 3.07.795 4.937l-.311.123c-1.107-2.777-3.321-4.381-6.704-4.381-4.677 0-7.14 2.823-7.14 8.223v.385c0 5.385 2.463 8.208 7.14 8.208m1.715-2.777c-2.806 0-4.272-1.774-4.272-5.276v-.71c0-3.517 1.466-5.307 4.272-5.307 2.931 0 4.505 1.882 4.505 5.384v.556c0 3.486-1.574 5.353-4.505 5.353"/></svg>
